web/app/themes/wwp_child_theme/assets/raw/svg/icone-actu-white.svg

<?xml version="1.0" encoding="utf-8"?>
<!-- Generator: Adobe Illustrator 25.2.0, SVG Export Plug-In . SVG Version: 6.00 Build 0)  -->
<svg version="1.1" id="Calque_1" xmlns="http://www.w3.org/2000/svg" xmlns:xlink="http://www.w3.org/1999/xlink" x="0px" y="0px"
	 viewBox="0 0 18 18" style="enable-background:new 0 0 18 18;" xml:space="preserve">
<style type="text/css">
	.st0{fill:#FFFFFF;}
</style>
<desc>Created with Sketch.</desc>
<g id="Symbols">
	<g id="article-photo" transform="translate(-61.000000, -65.000000)">
		<g id="Shape">
			<path class="st0" d="M76.3,65H63.7c-1.4,0-2.7,1.3-2.7,2.7v12.6c0,1.5,1.3,2.7,2.7,2.7h12.6c1.5,0,2.7-1.3,2.7-2.7V67.7
				C79,66.3,77.7,65,76.3,65z M75.5,76H64.4v-1.6h11.1V76z M75.5,79.1H64.4v-1.6h11.1V79.1z M75.5,72.2H64.4V69h11.1V72.2z"/>
		</g>
	</g>
</g>
</svg>

<?xml version="1.0" encoding="UTF-8"?>
<svg width="18px" height="18px" viewBox="0 0 18 18" version="1.1" xmlns="http://www.w3.org/2000/svg" xmlns:xlink="http://www.w3.org/1999/xlink">
    <!-- Generator: Sketch 59.1 (86144) - https://sketch.com -->
    <title>Shape</title>
    <desc>Created with Sketch.</desc>
    <g id="Symbols" stroke="none" stroke-width="1" fill="none" fill-rule="evenodd" fill-opacity="0.5">
        <g id="article-photo" transform="translate(-61.000000, -65.000000)" fill="#FFFFFF" fill-rule="nonzero">
            <g id="Shape">
                <path d="M76.3,65 L63.7,65 C62.3,65 61,66.3 61,67.7 L61,80.3 C61,81.8 62.3,83 63.7,83 L76.3,83 C77.8,83 79,81.7 79,80.3 L79,67.7 C79,66.3 77.7,65 76.3,65 Z M75.5,76 L64.4,76 L64.4,74.4 L75.5,74.4 L75.5,76 Z M75.5,79.1 L64.4,79.1 L64.4,77.5 L75.5,77.5 L75.5,79.1 Z M75.5,72.2 L64.4,72.2 L64.4,69 L75.5,69 L75.5,72.2 Z"></path>
            </g>
        </g>
    </g>
</svg>
